X: 2
T: A March For Giving Thanks
M: 4/4
L: 1/8
R: march
K: Dmaj
|: DE |\ 
F2 DF A2 FA | Bc dB A2 FA | Bc dB AF DF | EF ED E2 DE |
F2 DF A2 FA | Bc dB A2 FA | Bc dB Ad fd | eA ce d2 :|
|: dA |\
fA df eA ce | de fd A2 dc | Bc dB AF DF | EF ED E2 dA | 
[1 fA df eA c2 | d>e fd A2 dc |  Bc dB AF D2 | EF ED E2 :|
[2 F2 DF A2 FA | Bc dB A2 FA | Bc dB Ad fd | ea ce d2 |]
